images/dollar.svg

<svg width="15" height="23" fill="none" xmlns="http://www.w3.org/2000/svg"><path d="M6.89489 22.1818h2.01136l.01705-1.9687c3.6903-.2813 5.8295-2.2415 5.8381-5.1989-.0086-2.9062-2.1989-4.4489-5.23299-5.13068l-.50284-.11932.03409-4.26136c1.13354.2642 1.82384.98864 1.92614 2.0625h3.5369c-.0426-2.82102-2.1477-4.84091-5.42895-5.19886L9.1108.363635H7.09943L7.08239 2.34943C3.75 2.67329 1.39773 4.68466 1.41477 7.59091c-.00852 2.57389 1.80682 4.04829 4.75568 4.75569l.81819.2045-.04262 4.5086c-1.3892-.2642-2.3267-1.1165-2.42045-2.5398H.954545c.085225 3.4432 2.343755 5.3693 5.957385 5.6846l-.01704 1.9773zm2.0625-5.1221l.03409-3.9802c1.32102.4177 2.03692.9546 2.04542 1.9262-.0085 1.0312-.7926 1.7983-2.07951 2.054zM7.0142 9.24432c-1.06534-.36648-1.83238-.92046-1.81534-1.90057 0-.91193.64773-1.61932 1.84944-1.86648l-.0341 3.76705z" fill="#fff"/></svg>

<svg width="15" height="23" viewBox="0 0 15 23" fill="none" xmlns="http://www.w3.org/2000/svg">
<path d="M6.89489 22.1818H8.90625L8.9233 20.2131C12.6136 19.9318 14.7528 17.9716 14.7614 15.0142C14.7528 12.108 12.5625 10.5653 9.52841 9.88352L9.02557 9.7642L9.05966 5.50284C10.1932 5.76704 10.8835 6.49148 10.9858 7.56534H14.5227C14.4801 4.74432 12.375 2.72443 9.09375 2.36648L9.1108 0.363635H7.09943L7.08239 2.34943C3.75 2.67329 1.39773 4.68466 1.41477 7.59091C1.40625 10.1648 3.22159 11.6392 6.17045 12.3466L6.98864 12.5511L6.94602 17.0597C5.55682 16.7955 4.61932 15.9432 4.52557 14.5199H0.954545C1.03977 17.9631 3.2983 19.8892 6.91193 20.2045L6.89489 22.1818ZM8.95739 17.0597L8.99148 13.0795C10.3125 13.4972 11.0284 14.0341 11.0369 15.0057C11.0284 16.0369 10.2443 16.804 8.95739 17.0597ZM7.0142 9.24432C5.94886 8.87784 5.18182 8.32386 5.19886 7.34375C5.19886 6.43182 5.84659 5.72443 7.0483 5.47727L7.0142 9.24432Z" fill="white"/>
</svg>
